build/Karasa-Jaga/scalable/emotes/face-sad-symbolic.svg

<svg height="16" width="16" xmlns="http://www.w3.org/2000/svg"><path d="m8 .75c-3.9970422 0-7.25 3.2529581-7.25 7.25 0 3.997042 3.2529578 7.25 7.25 7.25 3.997042 0 7.25-3.252958 7.25-7.25 0-3.9970419-3.252958-7.25-7.25-7.25zm-1.53125 4.34375c.3520298 0 .625.4523975.625 1 0 .1711258-.013443.3282582-.0625.46875-.087595.3498906-.3065837.59375-.5625.59375-.2559171 0-.4749049-.2438594-.5625-.59375-.049065-.1404918-.09375-.2976242-.09375-.46875 0-.5476025.3042248-1 .65625-1zm3.0625 0c.3520298 0 .65625.4523975.65625 1 0 .1711258-.04469.3282582-.09375.46875-.0876.3498906-.3065837.59375-.5625.59375-.2559171 0-.4749048-.2438594-.5625-.59375-.0490613-.1404918-.0625-.2976242-.0625-.46875 0-.5476025.2729734-1 .625-1zm-1.34375 3.625c.558048.018344 1.106033.133122 1.625.34375.928916.360154 1.769479 1.020996 2.3125 1.90625.01776-.0025.04405 0 .0625 0 .212805 0 .375.162194.375.375s-.162195.375-.375.375c-.212806 0-.375-.162194-.375-.375 0-.088319.01253-.15376.0625-.21875-1.521692-1.6091502-3.959343-1.966486-5.9375-1.1875-.664677.269572-1.31495.649891-1.8125 1.1875.04255.061968.0625.1379.0625.21875 0 .212806-.162194.375-.375.375-.212805 0-.375-.162194-.375-.375s.162195-.375.375-.375c.02801 0 .03619-.0057.0625 0 .923802-1.517712 2.638356-2.305032 4.3125-2.25z" fill="#bebebe"/></svg>

<?xml version="1.0" encoding="UTF-8" standalone="no"?>
<!-- Created with Inkscape (http://www.inkscape.org/) -->

<svg
   xmlns:dc="http://purl.org/dc/elements/1.1/"
   xmlns:cc="http://creativecommons.org/ns#"
   xmlns:rdf="http://www.w3.org/1999/02/22-rdf-syntax-ns#"
   xmlns:svg="http://www.w3.org/2000/svg"
   xmlns="http://www.w3.org/2000/svg"
   xmlns:xlink="http://www.w3.org/1999/xlink"
   xmlns:sodipodi="http://sodipodi.sourceforge.net/DTD/sodipodi-0.dtd"
   xmlns:inkscape="http://www.inkscape.org/namespaces/inkscape"
   width="16px"
   height="16px"
   id="svg17273"
   version="1.1"
   inkscape:version="0.48.3.1 r9886"
   sodipodi:docname="face-angel-symbolic.svg">
  <defs
     id="defs17275">
    <linearGradient
       gradientTransform="translate(0,-1036.3622)"
       y2="1052.3365"
       x2="6.2342343"
       y1="1036.4342"
       x1="6.2342343"
       gradientUnits="userSpaceOnUse"
       id="linearGradient3804"
       xlink:href="#linearGradient3779"
       inkscape:collect="always" />
    <linearGradient
       gradientUnits="userSpaceOnUse"
       y2="1052.3365"
       x2="6.2342343"
       y1="1036.4342"
       x1="6.2342343"
       id="linearGradient3812"
       xlink:href="#linearGradient3779"
       inkscape:collect="always" />
    <radialGradient
       gradientTransform="matrix(1.3020488e-5,1.7443014,-1.3603604,1.0154528e-5,1426.7246,1025.7323)"
       gradientUnits="userSpaceOnUse"
       r="5"
       fy="1045.0559"
       fx="11.072059"
       cy="1045.0559"
       cx="11.072059"
       id="radialGradient3796"
       xlink:href="#linearGradient3790"
       inkscape:collect="always" />
    <linearGradient
       gradientUnits="userSpaceOnUse"
       y2="7.984375"
       x2="14.8125"
       y1="7.984375"
       x1="1.1875"
       id="linearGradient3806"
       xlink:href="#linearGradient3800"
       inkscape:collect="always" />
    <linearGradient
       gradientUnits="userSpaceOnUse"
       y2="1052.2942"
       x2="3.4594595"
       y1="1036.4342"
       x1="3.4594595"
       id="linearGradient3785"
       xlink:href="#linearGradient3779"
       inkscape:collect="always" />
    <radialGradient
       gradientTransform="matrix(1.4806489e-6,1.9101011,-1.3873874,1.0754581e-6,1450.2076,1024.0417)"
       gradientUnits="userSpaceOnUse"
       r="8"
       fy="1039.4613"
       fx="8.0720873"
       cy="1039.4613"
       cx="8.0720873"
       id="radialGradient3777"
       xlink:href="#linearGradient3771"
       inkscape:collect="always" />
    <linearGradient
       gradientTransform="translate(-4,27.000017)"
       gradientUnits="userSpaceOnUse"
       y2="1024.1722"
       x2="14.801802"
       y1="1010.4072"
       x1="14.801802"
       id="linearGradient4542"
       xlink:href="#linearGradient4536"
       inkscape:collect="always" />
    <linearGradient
       id="linearGradient3702-501-757">
      <stop
         offset="0"
         style="stop-color:#181818;stop-opacity:0"
         id="stop2895" />
      <stop
         offset="0.5"
         style="stop-color:#181818;stop-opacity:1"
         id="stop2897" />
      <stop
         offset="1"
         style="stop-color:#181818;stop-opacity:0"
         id="stop2899" />
    </linearGradient>
    <linearGradient
       y2="39.999443"
       x2="25.058096"
       y1="47.027729"
       x1="25.058096"
       gradientUnits="userSpaceOnUse"
       id="linearGradient3136"
       xlink:href="#linearGradient3702-501-757"
       inkscape:collect="always" />
    <linearGradient
       id="linearGradient3688-464-309">
      <stop
         offset="0"
         style="stop-color:#181818;stop-opacity:1"
         id="stop2889" />
      <stop
         offset="1"
         style="stop-color:#181818;stop-opacity:0"
         id="stop2891" />
    </linearGradient>
    <radialGradient
       r="2.5"
       fy="43.5"
       fx="4.9929786"
       cy="43.5"
       cx="4.9929786"
       gradientTransform="matrix(2.003784,0,0,1.4,-20.01187,-104.4)"
       gradientUnits="userSpaceOnUse"
       id="radialGradient3134"
       xlink:href="#linearGradient3688-464-309"
       inkscape:collect="always" />
    <linearGradient
       id="linearGradient3688-166-749">
      <stop
         offset="0"
         style="stop-color:#181818;stop-opacity:1"
         id="stop2883" />
      <stop
         offset="1"
         style="stop-color:#181818;stop-opacity:0"
         id="stop2885" />
    </linearGradient>
    <radialGradient
       r="2.5"
       fy="43.5"
       fx="4.9929786"
       cy="43.5"
       cx="4.9929786"
       gradientTransform="matrix(2.003784,0,0,1.4,27.98813,-17.4)"
       gradientUnits="userSpaceOnUse"
       id="radialGradient3132"
       xlink:href="#linearGradient3688-166-749"
       inkscape:collect="always" />
    <linearGradient
       id="linearGradient4536">
      <stop
         id="stop4538"
         offset="0"
         style="stop-color:#ffffff;stop-opacity:1;" />
      <stop
         style="stop-color:#ffffff;stop-opacity:0.15686275;"
         offset="0.08246523"
         id="stop4546" />
      <stop
         style="stop-color:#ffffff;stop-opacity:0.23529412;"
         offset="0.936414"
         id="stop4544" />
      <stop
         id="stop4540"
         offset="1"
         style="stop-color:#ffffff;stop-opacity:0.39215687;" />
    </linearGradient>
    <linearGradient
       id="linearGradient3771">
      <stop
         id="stop3773"
         offset="0"
         style="stop-color:#ffffff;stop-opacity:1;" />
      <stop
         id="stop3775"
         offset="1"
         style="stop-color:#e6e6e6;stop-opacity:1;" />
    </linearGradient>
    <linearGradient
       id="linearGradient3779">
      <stop
         id="stop3781"
         offset="0"
         style="stop-color:#828282;stop-opacity:1;" />
      <stop
         id="stop3783"
         offset="1"
         style="stop-color:#505050;stop-opacity:1;" />
    </linearGradient>
    <linearGradient
       id="linearGradient3800"
       inkscape:collect="always">
      <stop
         id="stop3802"
         offset="0"
         style="stop-color:#000000;stop-opacity:0;" />
      <stop
         style="stop-color:#000000;stop-opacity:1;"
         offset="0.5"
         id="stop3808" />
      <stop
         id="stop3804"
         offset="1"
         style="stop-color:#000000;stop-opacity:0;" />
    </linearGradient>
    <linearGradient
       id="linearGradient3790">
      <stop
         id="stop3792"
         offset="0"
         style="stop-color:#93d0e9;stop-opacity:1;" />
      <stop
         id="stop3794"
         offset="1"
         style="stop-color:#3372b1;stop-opacity:1;" />
    </linearGradient>
  </defs>
  <sodipodi:namedview
     id="base"
     pagecolor="#ffffff"
     bordercolor="#666666"
     borderopacity="1.0"
     inkscape:pageopacity="0.0"
     inkscape:pageshadow="2"
     inkscape:zoom="16"
     inkscape:cx="12.125605"
     inkscape:cy="8.6141099"
     inkscape:current-layer="layer1"
     showgrid="true"
     inkscape:grid-bbox="true"
     inkscape:document-units="px"
     inkscape:window-width="1366"
     inkscape:window-height="696"
     inkscape:window-x="0"
     inkscape:window-y="0"
     inkscape:window-maximized="1"
     showguides="true"
     inkscape:guide-bbox="true" />
  <metadata
     id="metadata17278">
    <rdf:RDF>
      <cc:Work
         rdf:about="">
        <dc:format>image/svg+xml</dc:format>
        <dc:type
           rdf:resource="http://purl.org/dc/dcmitype/StillImage" />
        <dc:title></dc:title>
      </cc:Work>
    </rdf:RDF>
  </metadata>
  <g
     id="layer1"
     inkscape:label="Layer 1"
     inkscape:groupmode="layer">
    <path
       style="fill:#bebebe;fill-opacity:1;stroke:none"
       d="M 8 0.75 C 4.0029578 0.75 0.75 4.0029581 0.75 8 C 0.75 11.997042 4.0029578 15.25 8 15.25 C 11.997042 15.25 15.25 11.997042 15.25 8 C 15.25 4.0029581 11.997042 0.75 8 0.75 z M 6.46875 5.09375 C 6.8207798 5.09375 7.09375 5.5461475 7.09375 6.09375 C 7.09375 6.2648758 7.080307 6.4220082 7.03125 6.5625 C 6.943655 6.9123906 6.7246663 7.15625 6.46875 7.15625 C 6.2128329 7.15625 5.9938451 6.9123906 5.90625 6.5625 C 5.857185 6.4220082 5.8125 6.2648758 5.8125 6.09375 C 5.8125 5.5461475 6.1167248 5.09375 6.46875 5.09375 z M 9.53125 5.09375 C 9.8832798 5.09375 10.1875 5.5461475 10.1875 6.09375 C 10.1875 6.2648758 10.14281 6.4220082 10.09375 6.5625 C 10.00615 6.9123906 9.7871663 7.15625 9.53125 7.15625 C 9.2753329 7.15625 9.0563452 6.9123906 8.96875 6.5625 C 8.9196887 6.4220082 8.90625 6.2648758 8.90625 6.09375 C 8.90625 5.5461475 9.1792234 5.09375 9.53125 5.09375 z M 8.1875 8.71875 C 8.745548 8.737094 9.293533 8.851872 9.8125 9.0625 C 10.741416 9.422654 11.581979 10.083496 12.125 10.96875 C 12.14276 10.96625 12.16905 10.96875 12.1875 10.96875 C 12.400305 10.96875 12.5625 11.130944 12.5625 11.34375 C 12.5625 11.556556 12.400305 11.71875 12.1875 11.71875 C 11.974694 11.71875 11.8125 11.556556 11.8125 11.34375 C 11.8125 11.255431 11.82503 11.18999 11.875 11.125 C 10.353308 9.5158498 7.915657 9.158514 5.9375 9.9375 C 5.272823 10.207072 4.62255 10.587391 4.125 11.125 C 4.16755 11.186968 4.1875 11.2629 4.1875 11.34375 C 4.1875 11.556556 4.025306 11.71875 3.8125 11.71875 C 3.599695 11.71875 3.4375 11.556556 3.4375 11.34375 C 3.4375 11.130944 3.599695 10.96875 3.8125 10.96875 C 3.84051 10.96875 3.84869 10.96305 3.875 10.96875 C 4.798802 9.451038 6.513356 8.663718 8.1875 8.71875 z "
       id="path3276" />
  </g>
</svg>
